build/svg/res/sx16670.svg

<?xml version="1.0" encoding="UTF-8" standalone="no"?>
<svg
   xmlns:dc="http://purl.org/dc/elements/1.1/"
   xmlns:cc="http://creativecommons.org/ns#"
   xmlns:rdf="http://www.w3.org/1999/02/22-rdf-syntax-ns#"
   xmlns:svg="http://www.w3.org/2000/svg"
   xmlns="http://www.w3.org/2000/svg"
   xmlns:sodipodi="http://sodipodi.sourceforge.net/DTD/sodipodi-0.dtd"
   xmlns:inkscape="http://www.inkscape.org/namespaces/inkscape"
   viewBox="0 0 16 16"
   version="1.1"
   id="svg6"
   sodipodi:docname="sx16670.svg"
   inkscape:export-filename="/home/jupiter007/Libreoffice yaru theme fullcolor/build/res/sx16670.png"
   inkscape:export-xdpi="96"
   inkscape:export-ydpi="96"
   inkscape:version="0.92.5 (2060ec1f9f, 2020-04-08)">
  <metadata
     id="metadata12">
    <rdf:RDF>
      <cc:Work
         rdf:about="">
        <dc:format>image/svg+xml</dc:format>
        <dc:type
           rdf:resource="http://purl.org/dc/dcmitype/StillImage" />
      </cc:Work>
    </rdf:RDF>
  </metadata>
  <defs
     id="defs10" />
  <sodipodi:namedview
     pagecolor="#ffffff"
     bordercolor="#666666"
     borderopacity="1"
     objecttolerance="10"
     gridtolerance="10"
     guidetolerance="10"
     inkscape:pageopacity="0"
     inkscape:pageshadow="2"
     inkscape:window-width="1920"
     inkscape:window-height="1011"
     id="namedview8"
     showgrid="true"
     inkscape:zoom="29.5"
     inkscape:cx="-0.18853672"
     inkscape:cy="5.4041138"
     inkscape:window-x="1920"
     inkscape:window-y="32"
     inkscape:window-maximized="1"
     inkscape:current-layer="svg6">
    <inkscape:grid
       type="xygrid"
       id="grid830" />
  </sodipodi:namedview>
  <path
     style="fill:#f2cbf8;fill-opacity:1;stroke-width:0.91666681"
     id="path817"
     d="m 7.9999998,2.5 c -3.0375661,0 -5.5,0.8208113 -5.5,1.833333 v 7.333333 c 0,1.012522 2.4624339,1.833334 5.5,1.833334 C 11.037565,13.5 13.5,12.679188 13.5,11.666666 V 4.333333 C 13.5,3.3208113 11.037565,2.5 7.9999998,2.5 Z"
     inkscape:connector-curvature="0"
     sodipodi:nodetypes="sssssss" />
  <path
     inkscape:connector-curvature="0"
     d="m 7.9999998,2 a 6,2 0 0 0 -6,2 v 8 a 6,2 0 0 0 6,2 A 6,2 0 0 0 14,12 V 4 A 6,2 0 0 0 7.9999998,2 Z m 0,1 A 5,1 0 0 1 13,4 5,1 0 0 1 7.9999998,5 5,1 0 0 1 2.9999999,4 5,1 0 0 1 7.9999998,3 Z m -5,2.101562 A 6,2 0 0 0 7.9999998,6 6,2 0 0 0 13,5.103516 V 8 A 5,1 0 0 1 7.9999998,9 5,1 0 0 1 2.9999999,8 Z m 0,4 A 6,2 0 0 0 7.9999998,10 6,2 0 0 0 13,9.103516 V 12 A 5,1 0 0 1 7.9999998,13 5,1 0 0 1 2.9999999,12 Z"
     id="path2"
     style="fill:#8e03a3;fill-opacity:1" />
  <path
     inkscape:connector-curvature="0"
     id="path856"
     d="m 6.9999336,12.0001 4.0000004,3 v -2 L 15,13.0002 v -2 l -4.000066,-10e-5 V 9.000101 Z"
     style="opacity:0.6;fill:#000000;fill-opacity:1;stroke:#000000;stroke-width:2;stroke-linecap:butt;stroke-linejoin:round;stroke-miterlimit:4;stroke-dasharray:none;stroke-opacity:1"
     sodipodi:nodetypes="cccccccc" />
  <path
     inkscape:connector-curvature="0"
     style="fill:#ffffff;fill-opacity:1;stroke:none;stroke-width:1px;stroke-linecap:butt;stroke-linejoin:miter;stroke-opacity:1"
     d="m 6.9999336,12.0001 4.0000004,3 v -2 L 15,13.0002 v -2 l -4.000066,-10e-5 V 9.000101 Z"
     id="path834-1"
     sodipodi:nodetypes="cccccccc" />
</svg>

<svg xmlns="http://www.w3.org/2000/svg" viewBox="0 0 16 16"><path d="M8 2.5c-3.038 0-5.5.82-5.5 1.833v7.334C2.5 12.679 4.962 13.5 8 13.5s5.5-.82 5.5-1.833V4.333C13.5 3.321 11.038 2.5 8 2.5z" fill="#f2cbf8"/><path d="M8 2a6 2 0 00-6 2v8a6 2 0 006 2 6 2 0 006-2V4a6 2 0 00-6-2zm0 1a5 1 0 015 1 5 1 0 01-5 1 5 1 0 01-5-1 5 1 0 015-1zM3 5.102A6 2 0 008 6a6 2 0 005-.896V8a5 1 0 01-5 1 5 1 0 01-5-1zm0 4A6 2 0 008 10a6 2 0 005-.896V12a5 1 0 01-5 1 5 1 0 01-5-1z" fill="#8e03a3"/><path d="M7 12l4 3v-2h4v-2h-4V9z" opacity=".6" stroke="#000" stroke-width="2" stroke-linejoin="round"/><path d="M7 12l4 3v-2h4v-2h-4V9z" fill="#fff"/></svg>
